X: 30623
T: VICTORIA HORNPIPE
C:
%R: hornpipe, reel
B: Elias Howe "The Musician's Companion" Part 3 1844 p.62 #3
S: http://imslp.org/wiki/The_Musician's_Companion_(Howe,_Elias)
S: https://archive.org/stream/firstthirdpartof03howe/#page/66/mode/1up
Z: 2015 John Chambers <jc:trillian.mit.edu>
M: 2/4
L: 1/16
K: D
% - - - - - - - - - - - - - - - - - - - - - - - - -
A2 |\
AFAd fedB | AFAc dedB | AFAd fedf | afge fedB |\
AFAd fedB | AFAc dedB | AFAd fedf | gABc d2 :|
|: e2 |\
fedf eAAd | fedf abag | fedf eAAA | fdec d2(de) |\
fedf eAAd | fedf abag | fedf eAAA | fdec d2 :|
% - - - - - - - - - - - - - - - - - - - - - - - - -
